X:1
T:Verset
T:Verset
T:Louis Lefébure Arr. Guilherme Faure 
T:Arr. Guilherme Faure
C:Marcel Lefébvre
Z:Arr. Guilherme Faure
%%score { 1 | ( 2 4 ) | 3 }
L:1/8
Q:1/4=92
M:4/4
K:G
V:1 treble nm="Pipe Organ" snm="Org."
V:2 bass 
V:4 bass 
V:3 bass-8 
V:1
!pp!"^Expressivo\n" d4 G4- | GFAB cdfe | d4 G4- | GFAB cdfe | d4 b4- | bfgf ed^cB | ^A4 f4- | %7
 f^d B2- BcFA | d4 G4- | GFAB cdfe | d4 G4- | GFAB cdfe | d4 b4- | bfgf ed^cB | ^A4 f4- | %15
 f^d B2- Be^GB | e^c A2- AdFA | dB G2- GAB{/d}c | B6 A2 | (G4 G)AB{/d}c | B6 A2 | G4- GFAG | %22
 G4- GFAG | G8- | G8- | !fermata!G8 |] %26
V:2
 [G,-B,D-]8 | [G,-A,CD-]8 | [G,-B,D-]8 | [G,-A,CD-]8 | [G,B,-D-]8 | [F,-B,D]8 | [F,^CE]8 | %7
 [B,^D]4 [A,C=D]4 | [G,-B,D-]8 | [G,-A,CD-]8 | [G,-B,D-]8 | [G,-A,CD-]8 | [G,B,-D-]8 | [F,B,D]8 | %14
 [F,^CE]8 | [B,^D]4 [E,B,=D]4 | [A,^C]4 [D,A,=C]4 | [=F,G,B,]4 [E,G,C]4 | [D,G,D]4 [D,F,C]4 | %19
 [E,G,B,]4 [_E,G,C]4 | [D,G,D]4 [D,F,C]4 | G,8- | G,8 | [G,B,D]4 z4 | [D,B,D]4 z4 | [D,B,D]8 |] %26
V:3
 G,8- | G,8- | G,8- | G,8- | G,8 | F,8- | F,8 | B,4 A,4 | G,8- | G,8- | G,8- | G,8- | G,8 | F,8 | %14
 F,8 | B,4 E,4 | A,4 D,4 | =F,4 E,4 | D,4 D,4 | E,4 _E,4 | D,4 D,4 | G,8- | G,8 | G,4 z4 | %24
 G,,4 z4 | G,,8 |] %26
V:4
 x8 | x8 | x8 | x8 | x8 | x8 | x8 | x8 | x8 | x8 | x8 | x8 | x8 | x8 | x8 | x8 | x8 | x8 | x8 | %19
 x8 | x8 | B,4 [C_E]4 | B,4 [C_E]4 | x8 | x8 | x8 |] %26

